X: 60
T:Steam-boat Hornpipe
% Nottingham Music Database
S:FTB1 p4
M:4/4
L:1/8
R:Hornpipe
K:G
d2/3e2/3f2/3|"G"g2bg d2gd|"G"BcdB G2AB|"C"c2ec "Am"A2cA|"D7"FGAB cdef|
"G"g2bg d2gd|"G"BcdB G2AB|"C"cedc "D7"BAGF|"G"A2G2 G2:|:
Bc|"G"dBdB g2gd|"Am"ecec a2ag|"D7"fefd "G"gfgb|"A7"agfe "D7"defd|
"G"g2bg d2gd|"G"BcdB G2AB|"C"cedc "D7"BAGF|"G"A2G2 G2:|


